X: 32810
T: Pop The Dolphin
R: reel
M: 4/4
K: Dmajor
|:A~B3 ~B2Ac|dfec d3e|f2af gfed|B/c/d ef edcA|
A~B3 ~B2Ac|dfec d3e|f2af gfed|1 B/c/d ec d2cA:|2 B/c/d ec dABc||
|:df f/f/f df f/f/f|df f/f/f gfef|df fe ~f3g|afeg fddc|
df f/f/f df f/f/f|df f/f/f ~g2fg|afge fdde|1 f/g/a ag fddc:|2 faag fdAd||

